X:230
T:Mulvahill's
R:reel
Z:transcribed by Dave Marshall
M:C|
K:G
|: BABd e~d3 | eBdB AGED | B,D (3DDD  EDB,D | GFGA BAA2 |
BABd e~d3 | eBdB AGED | B,DDG  EGAB | cAFA G4 :|
|: d2Bd gd (3ddd | edBd gdBd | e2^ce ae (3eee | afge fde^c |
d2Bd gd (3ddd | edBd gdBd | ~c3B cBAB |1 cAFA G4 :|2 cAFA G2GA |
|: BAGE DB,EB, | DEGA B2AB | cBAG FDDE | ~F3G ABcA |
BAGE DB,EB, | DEGA B2AB | ~c3B cBAB |1 cAFA G2GA :|2 cAFA G4 |
